docs/styles/img/icons/socialSubscribe/pinterest.svg

<svg width="27" height="27" viewBox="0 0 27 27" fill="none" xmlns="http://www.w3.org/2000/svg">
<g clip-path="url(#clip0)">
<path d="M13.8668 0C6.46538 0.001125 2.53125 4.743 2.53125 9.9135C2.53125 12.3109 3.87113 15.3022 6.0165 16.2506C6.6285 16.5262 6.5475 16.1899 7.074 14.1761C7.11562 14.0085 7.09425 13.8634 6.95925 13.707C3.8925 10.1599 6.36075 2.86762 13.4291 2.86762C23.6588 2.86762 21.7474 17.0224 15.2089 17.0224C13.5236 17.0224 12.2681 15.6994 12.6653 14.0625C13.1468 12.1129 14.0895 10.017 14.0895 8.61188C14.0895 5.07038 8.81325 5.59575 8.81325 10.2881C8.81325 11.7383 9.32625 12.717 9.32625 12.717C9.32625 12.717 7.62862 19.575 7.31362 20.8564C6.78038 23.0254 7.38562 26.5365 7.4385 26.8391C7.47113 27.0056 7.65788 27.0585 7.7625 26.9212C7.93013 26.7019 9.98212 23.7746 10.557 21.6585C10.7662 20.8879 11.6246 17.7604 11.6246 17.7604C12.1905 18.7819 13.8218 19.6369 15.5599 19.6369C20.7304 19.6369 24.4676 15.0919 24.4676 9.45225C24.4496 4.0455 19.8225 0 13.8668 0V0Z" fill="#656565"/>
</g>
<defs>
<clipPath id="clip0">
<rect width="27" height="27" fill="white"/>
</clipPath>
</defs>
</svg>

<svg width="27" height="27" fill="none" xmlns="http://www.w3.org/2000/svg"><g clip-path="url(#clip0)"><path d="M13.867 0C6.465.001 2.53 4.743 2.53 9.914c0 2.397 1.34 5.388 3.485 6.337.612.275.532-.061 1.058-2.075a.478.478 0 00-.115-.469c-3.066-3.547-.598-10.84 6.47-10.84 10.23 0 8.318 14.155 1.78 14.155-1.685 0-2.94-1.323-2.544-2.96.482-1.95 1.425-4.045 1.425-5.45 0-3.542-5.277-3.016-5.277 1.676 0 1.45.513 2.429.513 2.429s-1.697 6.858-2.012 8.14c-.534 2.168.072 5.68.125 5.982.032.167.219.22.324.082.167-.22 2.22-3.146 2.794-5.262.21-.771 1.068-3.899 1.068-3.899.566 1.022 2.197 1.877 3.935 1.877 5.17 0 8.908-4.545 8.908-10.185C24.45 4.045 19.823 0 13.867 0z" fill="#656565"/></g><defs><clipPath id="clip0"><path fill="#fff" d="M0 0h27v27H0z"/></clipPath></defs></svg>
